X:410
T:Blgeten
A:Dalarna 
B:YDW Scandy Dance book
M:3/4
N:A version with instructions for fiddle.
O:Sweden
R:Polska
Z:Richard Robinson 
%%TUNEURL: http://www.leeds.ac.uk/music/Info/RRTuneBk/gettune/00000b9f.html
%%ID:00000b9f
K:A dorian
vA>B A2 B2 | (TcB/c/) {/c}d2 MB>G | {/G}A2 A4|\
ve>f e2 f2 | (Tgf/g/) {/g}a2 Mf>d | {/d}e2 e4 :|
({/e} | \
ve2) ({/a}[a2)A2] e>f | \
(3:2:5 v[e2A2] (de)dB vc>A| vB<c v{/D}[(E4(B4] |\
[A)E)]>B A2 B2 | Mc>e d2 B2| Mc>e d2 u(MB>G)| v{/G}A2 uA4:|
